X:2950
T:Chi mi na feidh air a bhealach
T:I see the deer in the mountain pass
S:Angus Fraser Collection
M:6/8
L:1/8
K:DMin
A   |d2D    A2G|F2E D2z/A/|d2D A2G|F2G A2
z/e/|f2e {e}d2c|A2G FGA   |d2D A2G|F2E D2||
A   |D2D    F2G|A2A f2g   |a2g f2e|d2c AB
c   |d2D    A2G|F2E D2z/A/|d2D A2G|F2G A2
z/e/|f2e    d2c|A2G FGA   |d2D A2G|F2E D2|]


